icons/door-open.svg

<svg width="24" height="24" viewBox="0 0 24 24" fill="none" xmlns="http://www.w3.org/2000/svg">
<path fill-rule="evenodd" clip-rule="evenodd" d="M14.6257 2.21997C14.8623 2.40976 15 2.69669 15 3.00001V4.00001H19C19.5523 4.00001 20 4.44772 20 5.00001V19H21C21.5523 19 22 19.4477 22 20C22 20.5523 21.5523 21 21 21H19C18.4477 21 18 20.5523 18 20V6.00001H15V20C15 20.5523 14.5523 21 14 21H3C2.44772 21 2 20.5523 2 20C2 19.4477 2.44772 19 3 19H4V5.00001C4 4.53131 4.32553 4.1255 4.78307 4.02382L13.7831 2.02382C14.0792 1.95802 14.3891 2.03017 14.6257 2.21997ZM6 19H13V4.24662L6 5.80218V19ZM10 12C10 11.4477 10.4477 11 11 11H11.0095C11.5617 11 12.0095 11.4477 12.0095 12C12.0095 12.5523 11.5617 13 11.0095 13H11C10.4477 13 10 12.5523 10 12Z" fill="black"/>
</svg>

<svg
  width="24"
  height="24"
  viewBox="0 0 24 24"
  xmlns="http://www.w3.org/2000/svg"
>
  <path
    fill-rule="evenodd"
    clip-rule="evenodd"
    d="M14.626 2.22A1 1 0 0 1 15 3v1h4a1 1 0 0 1 1 1v14h1a1 1 0 1 1 0 2h-2a1 1 0 0 1-1-1V6h-3v14a1 1 0 0 1-1 1H3a1 1 0 1 1 0-2h1V5a1 1 0 0 1 .783-.976l9-2a1 1 0 0 1 .843.196zM6 19h7V4.247L6 5.802V19zm4-7a1 1 0 0 1 1-1h.01a1 1 0 0 1 0 2H11a1 1 0 0 1-1-1z"
  />
</svg>
